X:104
T:Gan Ainm
R:Reel
S:Maire O'Keeffe, Kerry (fiddle)
D:Session tape - Milltown Malbay 1991
Z:Bernie Stocks
M:4/4
K:A
c3A B2AB | c3A BAFA | c2cA B2Af | ecBA FAAB :| ~c3e f2ec | ABcA BAFA |
~c3e fece | fa~a2 bafe | ~c3e f2af | e2cA BAFA | EFAc B2Ac | ecBA FAA2 ||
Bernie Stocks (B.Stocks@ulst.ac.uk) 20/2/97
%abc2ps Book3abc.txt -x -o
<end>
<start>
